svg/nightmare.svg

<svg xmlns="http://www.w3.org/2000/svg" width="256" height="256" viewBox="0 0 1000 1000">
    <path d="M555.24 76.3c2.43.36 4.41 1.99 6.65 2.92 59.45 29 113.9 69.93 153.94 122.95 22.19 29.3 39.9 62.05 51.69 96.88 6.63 19.71 11.51 40.08 13.47 60.8 2.89-17.81 4.4-35.86 4.62-53.9.19-25.83-2.54-52.01-11.27-76.45-4.44-12.52-10.8-24.4-19.35-34.59 26.85 19.51 48.62 46.26 61.07 77.12 15.13 36.88 17.34 77.86 12.37 117.06-4.77 37.36-15.61 73.77-30.03 108.5-6.74 16.06-14.18 31.87-22.89 46.97-1.89 3.03-3.45 6.49-6.52 8.54-11.09 8.41-23.42 15.02-35.97 20.97-6.06 2.75-12.12 5.63-18.55 7.43 2.53-12.47 4.5-25.77.29-38.1-1.69-5.4-5.54-10.57-4.22-16.49 7.89-43.76 9.65-89.09.78-132.83-6.58-31.62-18.34-62.96-38.92-88.22.04.69.13 2.07.17 2.76l.93-.52c10.24 16.79 18.89 34.62 24.76 53.43 15.95 49.96 12.93 105.34-6.71 153.82-1.66 3.62-2.87 7.54-5.3 10.74 12.38-42.09 14.3-87.71 2.69-130.21-9.16-34.05-26.74-65.51-49.43-92.38-19.25-22.78-41.94-42.63-66.95-58.85-4.79-3.03-9.59-6.06-14.65-8.59 6.21 5.84 13.21 10.83 19.55 16.56 27.7 23.98 53.54 50.59 73.56 81.42 19.24 29.6 32.73 64.18 31.86 99.92-.51 33.74-14.48 66.27-35.72 92.13-13.05 15.98-28.59 29.95-45.91 41.17-15.92 10.78-35.03 16.52-54.23 16.8-32.28.5-63.63-10.99-91.18-27.14.45 9.28-4.85 17.49-10.3 24.53-3.65 4.54-7.59 8.89-12.1 12.59 6.03-17.03 10.56-34.86 10.64-53.03-.07-9.56-1.23-19.43-5.65-28.05 10.93 10.1 22.25 19.9 34.94 27.74 18.17 11.44 39.03 19.35 60.66 19.89 20.48.66 40.84-5.54 58.18-16.29 8.42-5.03 15.86-11.46 23.33-17.78.74-.65 1.2-1.47 1.36-2.46-1.84 1.56-3.38 3.44-5.15 5.06-1.48.18-2.13 1.53-3.12 2.41-11.36 8.9-25.32 14.47-39.73 15.58-18.48 1.47-37.07-3.41-53.42-11.87-2.64-1.48-5.47-2.75-7.66-4.88 15.5 3.42 32.11 3.36 47.04-2.46 15.15-5.75 27.7-16.82 37.45-29.55 7.77-9.95 13.79-21.09 20.21-31.92 1.97-3.79 4.13-8.26 2.71-12.58-1.09-2.91-4.8-2.93-7.15-1.72-6.56 3.15-10.65 9.57-14.1 15.7-3.22 5.77-8.29 11.1-15 12.44-7.43 1.52-14.98-1.9-20.35-6.88-3.79-3.35-5.96-7.99-8.7-12.13-16.28-25.54-36.43-49-61.19-66.66-11.9-8.54-24.98-15.47-38.9-20.07 34.47 3.1 66.09 19.87 93.36 40.35 6.1 4.54 11.84 9.51 17.65 14.4 3.63 3.08 9.13 2.09 12.58-.78 4.71-3.39 6.45-9.21 8.04-14.5 5.1-18.74 2.89-39.05-4.7-56.8-7.8-18.46-21.02-34.16-36.16-47.08-26.05-22.4-58.44-37.37-92.49-42.21-27.57-3.96-56.06-2.29-82.83 5.46 1.82.49 3.42-.54 5.11-1.02 20.9-4.54 42.79-5.45 63.79-.96 35.43 7.4 67.05 30.54 85.52 61.56-8.64-6.62-17.12-13.52-26.45-19.18-20.05-12.62-42.6-21.63-66.18-24.58-25.67-3.37-52 .72-75.98 10.23-31.2 12.44-59.09 32.7-81.72 57.41 1.85-.88 3.06-2.51 4.46-3.93 20.45-18.69 44.12-34.08 70.11-43.86 27.76-10.53 58.03-14.7 87.56-11.25 6.3.81 12.65 1.75 18.73 3.68-13.53 2.65-25.78 9.73-36.28 18.47-2.94 2.36-5.58 5.08-8.58 7.37-27.94-3.81-56.93 1.41-82 14.25-18 9.28-34.58 21.77-47.51 37.42 9.97-8.93 20.07-18.49 32.9-23.14 4.46-1.48 9.99-2.6 14.07.45 3.69 3 3.57 8.36 2.59 12.59-2.59 11.13-10.58 19.68-16.31 29.23-24.53 39.41-34.95 86.68-32.64 132.81 3.18 67.55 33.46 133.34 82.75 179.64 24.51 23.21 53.5 41.56 84.71 54.36 35.21 14.51 73.08 22.02 111.05 23.97 31.92 2.04 64.06-2.57 94.53-12.13 33.02-10.33 64.26-26.02 92.92-45.33 21.96-14.88 42.58-31.87 60.54-51.43 21.76-23.57 40.83-49.69 56.05-77.94 7.26-13.88 14.29-28.05 18.71-43.12-.16 4.18-1.59 8.15-2.61 12.16-9.39 32.72-26.61 62.75-47.37 89.55-33.21 42.51-75.84 77.56-123.68 102.42-32.21 16.68-67.04 28.55-102.99 33.76-34.83 4.97-70.46 3.48-105.01-2.93-37.32-7.08-73.31-21.27-105.27-41.84-49.7-31.86-89.32-78.04-116.93-129.96-5.88-11.1-11.21-22.51-15.73-34.23 1.39 18.39 6.87 36.27 13.75 53.3 23.28 55.93 66.27 102.94 118.63 133.08 30.23 17.45 63.6 29.25 97.9 35.48 31.8 5.8 64.36 6.97 96.55 4.44 35.38-2.86 70.3-11.44 102.9-25.5 51.77-22.2 97.02-57.83 134.01-100.02 33.14-37.9 60.55-80.81 81.21-126.71 1.13-2.11 1.26-4.59 2.52-6.64.25 2.35-1.33 4.28-2.03 6.42-17.33 44.43-40.08 86.97-69.46 124.64-33.05 42.56-74.93 78.52-123.04 103.01-61.23 31.46-131.6 43.9-200.02 37.65-39.79-3.62-79.14-13.28-115.71-29.49-26.06-11.63-50.84-26.62-71.89-45.99-14.42-13.33-27.07-28.88-35.5-46.71-1.69-3.18-3.41-6.96-6.98-8.36-2.12-.42-3.18 1.87-3.46 3.58-.91 5.86 1.51 11.52 3.65 16.85 8.16 18.99 20.47 35.77 32.72 52.28-24.04-18.48-42.88-42.9-58.52-68.67-18.98-31.69-33.35-66.02-43.99-101.35-1.2-3.97-2.39-7.95-3.05-12.05.86 12.73 3.69 25.25 6.29 37.73 8.53 38.11 22.89 74.99 43.1 108.44 33.51 55.94 83.11 101.18 139.42 133.55 47.07 26.96 98.51 46.57 151.79 56.86-60.49-7.72-120.44-23.02-175.83-48.89-54.46-25.41-104.23-62.17-141.24-109.82-21.76-27.88-39.05-59.23-51.05-92.5-30.31-83.97-27.34-178.97 6.09-261.57 15.15-37.23 36.88-72.13 65.79-100.25 2.45-2.64 4.58-8.63.31-10.53-5.1-.72-9.45 2.79-13.58 5.25-28.83 18.31-54.11 42.11-74.37 69.59-30.72 41.6-50.26 90.82-59.83 141.48-2.24 11.79-3.78 23.7-4.81 35.66-7.1-25.62-9.37-52.51-7.57-79 2.72-39.17 14.81-77.38 33.19-111.97 28.17-52.86 70.26-97.79 119.56-131.56 30.23-20.64 63.39-37.13 98.38-47.98 39.09-12.13 80.72-17.07 121.43-11.8 28.12 3.52 55.49 12.3 80.62 25.35-12.13-13.6-29.04-21.86-46.05-27.67-14.2-4.8-28.99-7.61-43.84-9.48 46.04-6.75 93.65 2.84 134.81 24.1 38.22 19.67 71.92 47.79 99.08 81.04-9.17-28.21-30.68-50.8-55-66.93 17.8 7.1 34.68 16.95 48.74 30.05 4.35 3.9 7.96 9.69 14.3 10.34 4.83.55 8.54-4.01 8.85-8.49.85-6.3-3.23-11.58-6.22-16.68-16.91-27.27-39.11-50.83-62.74-72.37-24.37-22.01-50.59-41.95-78.04-59.98-1.48-1.1-3.47-1.31-4.68-2.78"/>
</svg>

<svg width="256px" height="256px" viewBox="0 0 1000 1000" version="1.1" xmlns="http://www.w3.org/2000/svg"><path d=" M 555.24 76.30 C 557.67 76.66 559.65 78.29 561.89 79.22 C 621.34 108.22 675.79 149.15 715.83 202.17 C 738.02 231.47 755.73 264.22 767.52 299.05 C 774.15 318.76 779.03 339.13 780.99 359.85 C 783.88 342.04 785.39 323.99 785.61 305.95 C 785.80 280.12 783.07 253.94 774.34 229.50 C 769.90 216.98 763.54 205.10 754.99 194.91 C 781.84 214.42 803.61 241.17 816.06 272.03 C 831.19 308.91 833.40 349.89 828.43 389.09 C 823.66 426.45 812.82 462.86 798.40 497.59 C 791.66 513.65 784.22 529.46 775.51 544.56 C 773.62 547.59 772.06 551.05 768.99 553.10 C 757.90 561.51 745.57 568.12 733.02 574.07 C 726.96 576.82 720.90 579.70 714.47 581.50 C 717.00 569.03 718.97 555.73 714.76 543.40 C 713.07 538.00 709.22 532.83 710.54 526.91 C 718.43 483.15 720.19 437.82 711.32 394.08 C 704.74 362.46 692.98 331.12 672.40 305.86 C 672.44 306.55 672.53 307.93 672.57 308.62 L 673.50 308.10 C 683.74 324.89 692.39 342.72 698.26 361.53 C 714.21 411.49 711.19 466.87 691.55 515.35 C 689.89 518.97 688.68 522.89 686.25 526.09 C 698.63 484.00 700.55 438.38 688.94 395.88 C 679.78 361.83 662.20 330.37 639.51 303.50 C 620.26 280.72 597.57 260.87 572.56 244.65 C 567.77 241.62 562.97 238.59 557.91 236.06 C 564.12 241.90 571.12 246.89 577.46 252.62 C 605.16 276.60 631.00 303.21 651.02 334.04 C 670.26 363.64 683.75 398.22 682.88 433.96 C 682.37 467.70 668.40 500.23 647.16 526.09 C 634.11 542.07 618.57 556.04 601.25 567.26 C 585.33 578.04 566.22 583.78 547.02 584.06 C 514.74 584.56 483.39 573.07 455.84 556.92 C 456.29 566.20 450.99 574.41 445.54 581.45 C 441.89 585.99 437.95 590.34 433.44 594.04 C 439.47 577.01 444.00 559.18 444.08 541.01 C 444.01 531.45 442.85 521.58 438.43 512.96 C 449.36 523.06 460.68 532.86 473.37 540.70 C 491.54 552.14 512.40 560.05 534.03 560.59 C 554.51 561.25 574.87 555.05 592.21 544.30 C 600.63 539.27 608.07 532.84 615.54 526.52 C 616.28 525.87 616.74 525.05 616.90 524.06 C 615.06 525.62 613.52 527.50 611.75 529.12 C 610.27 529.30 609.62 530.65 608.63 531.53 C 597.27 540.43 583.31 546.00 568.90 547.11 C 550.42 548.58 531.83 543.70 515.48 535.24 C 512.84 533.76 510.01 532.49 507.82 530.36 C 523.32 533.78 539.93 533.72 554.86 527.90 C 570.01 522.15 582.56 511.08 592.31 498.35 C 600.08 488.40 606.10 477.26 612.52 466.43 C 614.49 462.64 616.65 458.17 615.23 453.85 C 614.14 450.94 610.43 450.92 608.08 452.13 C 601.52 455.28 597.43 461.70 593.98 467.83 C 590.76 473.60 585.69 478.93 578.98 480.27 C 571.55 481.79 564.00 478.37 558.63 473.39 C 554.84 470.04 552.67 465.40 549.93 461.26 C 533.65 435.72 513.50 412.26 488.74 394.60 C 476.84 386.06 463.76 379.13 449.84 374.53 C 484.31 377.63 515.93 394.40 543.20 414.88 C 549.30 419.42 555.04 424.39 560.85 429.28 C 564.48 432.36 569.98 431.37 573.43 428.50 C 578.14 425.11 579.88 419.29 581.47 414.00 C 586.57 395.26 584.36 374.95 576.77 357.20 C 568.97 338.74 555.75 323.04 540.61 310.12 C 514.56 287.72 482.17 272.75 448.12 267.91 C 420.55 263.95 392.06 265.62 365.29 273.37 C 367.11 273.86 368.71 272.83 370.40 272.35 C 391.30 267.81 413.19 266.90 434.19 271.39 C 469.62 278.79 501.24 301.93 519.71 332.95 C 511.07 326.33 502.59 319.43 493.26 313.77 C 473.21 301.15 450.66 292.14 427.08 289.19 C 401.41 285.82 375.08 289.91 351.10 299.42 C 319.90 311.86 292.01 332.12 269.38 356.83 C 271.23 355.95 272.44 354.32 273.84 352.90 C 294.29 334.21 317.96 318.82 343.95 309.04 C 371.71 298.51 401.98 294.34 431.51 297.79 C 437.81 298.60 444.16 299.54 450.24 301.47 C 436.71 304.12 424.46 311.20 413.96 319.94 C 411.02 322.30 408.38 325.02 405.38 327.31 C 377.44 323.50 348.45 328.72 323.38 341.56 C 305.38 350.84 288.80 363.33 275.87 378.98 C 285.84 370.05 295.94 360.49 308.77 355.84 C 313.23 354.36 318.76 353.24 322.84 356.29 C 326.53 359.29 326.41 364.65 325.43 368.88 C 322.84 380.01 314.85 388.56 309.12 398.11 C 284.59 437.52 274.17 484.79 276.48 530.92 C 279.66 598.47 309.94 664.26 359.23 710.56 C 383.74 733.77 412.73 752.12 443.94 764.92 C 479.15 779.43 517.02 786.94 554.99 788.89 C 586.91 790.93 619.05 786.32 649.52 776.76 C 682.54 766.43 713.78 750.74 742.44 731.43 C 764.40 716.55 785.02 699.56 802.98 680.00 C 824.74 656.43 843.81 630.31 859.03 602.06 C 866.29 588.18 873.32 574.01 877.74 558.94 C 877.58 563.12 876.15 567.09 875.13 571.10 C 865.74 603.82 848.52 633.85 827.76 660.65 C 794.55 703.16 751.92 738.21 704.08 763.07 C 671.87 779.75 637.04 791.62 601.09 796.83 C 566.26 801.80 530.63 800.31 496.08 793.90 C 458.76 786.82 422.77 772.63 390.81 752.06 C 341.11 720.20 301.49 674.02 273.88 622.10 C 268.00 611.00 262.67 599.59 258.15 587.87 C 259.54 606.26 265.02 624.14 271.90 641.17 C 295.18 697.10 338.17 744.11 390.53 774.25 C 420.76 791.70 454.13 803.50 488.43 809.73 C 520.23 815.53 552.79 816.70 584.98 814.17 C 620.36 811.31 655.28 802.73 687.88 788.67 C 739.65 766.47 784.90 730.84 821.89 688.65 C 855.03 650.75 882.44 607.84 903.10 561.94 C 904.23 559.83 904.36 557.35 905.62 555.30 C 905.87 557.65 904.29 559.58 903.59 561.72 C 886.26 606.15 863.51 648.69 834.13 686.36 C 801.08 728.92 759.20 764.88 711.09 789.37 C 649.86 820.83 579.49 833.27 511.07 827.02 C 471.28 823.40 431.93 813.74 395.36 797.53 C 369.30 785.90 344.52 770.91 323.47 751.54 C 309.05 738.21 296.40 722.66 287.97 704.83 C 286.28 701.65 284.56 697.87 280.99 696.47 C 278.87 696.05 277.81 698.34 277.53 700.05 C 276.62 705.91 279.04 711.57 281.18 716.90 C 289.34 735.89 301.65 752.67 313.90 769.18 C 289.86 750.70 271.02 726.28 255.38 700.51 C 236.40 668.82 222.03 634.49 211.39 599.16 C 210.19 595.19 209.00 591.21 208.34 587.11 C 209.20 599.84 212.03 612.36 214.63 624.84 C 223.16 662.95 237.52 699.83 257.73 733.28 C 291.24 789.22 340.84 834.46 397.15 866.83 C 444.22 893.79 495.66 913.40 548.94 923.69 C 488.45 915.97 428.50 900.67 373.11 874.80 C 318.65 849.39 268.88 812.63 231.87 764.98 C 210.11 737.10 192.82 705.75 180.82 672.48 C 150.51 588.51 153.48 493.51 186.91 410.91 C 202.06 373.68 223.79 338.78 252.70 310.66 C 255.15 308.02 257.28 302.03 253.01 300.13 C 247.91 299.41 243.56 302.92 239.43 305.38 C 210.60 323.69 185.32 347.49 165.06 374.97 C 134.34 416.57 114.80 465.79 105.23 516.45 C 102.99 528.24 101.45 540.15 100.42 552.11 C 93.32 526.49 91.05 499.60 92.85 473.11 C 95.57 433.94 107.66 395.73 126.04 361.14 C 154.21 308.28 196.30 263.35 245.60 229.58 C 275.83 208.94 308.99 192.45 343.98 181.60 C 383.07 169.47 424.70 164.53 465.41 169.80 C 493.53 173.32 520.90 182.10 546.03 195.15 C 533.90 181.55 516.99 173.29 499.98 167.48 C 485.78 162.68 470.99 159.87 456.14 158.00 C 502.18 151.25 549.79 160.84 590.95 182.10 C 629.17 201.77 662.87 229.89 690.03 263.14 C 680.86 234.93 659.35 212.34 635.03 196.21 C 652.83 203.31 669.71 213.16 683.77 226.26 C 688.12 230.16 691.73 235.95 698.07 236.60 C 702.90 237.15 706.61 232.59 706.92 228.11 C 707.77 221.81 703.69 216.53 700.70 211.43 C 683.79 184.16 661.59 160.60 637.96 139.06 C 613.59 117.05 587.37 97.11 559.92 79.08 C 558.44 77.98 556.45 77.77 555.24 76.30 Z" /></svg>
